!!!COM: Palestrina, Giovanni Perluigi da
!!!OPR: Aspice Domine
!!!OTL: Gloria
**kern	**kern	**kern	**kern	**kern
*Ibass	*Itenor	*Itenor	*Icalto	*Icant
!Bassus	!Tenor 2	!Tenor 1	!Altus	!Cantus
*clefF4	*clefGv2	*clefGv2	*clefG2	*clefG2
*k[]	*k[]	*k[]	*k[]	*k[]
*D:dor	*D:dor	*D:dor	*D:dor	*D:dor
*M4/2	*M4/2	*M4/2	*M4/2	*M4/2
=1	=1	=1	=1	=1
0r	0r	0r	0r	1a
.	.	.	.	1a
=2	=2	=2	=2	=2
0r	0r	0r	2.d	1.dd
.	.	.	4d	.
.	.	.	2d	.
.	.	.	2d	2dd
=3	=3	=3	=3	=3
0r	0A	0r	1a	1cc
.	.	.	1a	1cc
=4	=4	=4	=4	=4
1D	1.d	0r	1.a	1.ff
2D	.	.	.	.
2D	2d	.	2a	2ff
=5	=5	=5	=5	=5
1A	1c	0r	1a	1ee
[1A	[1e	.	2r	[1cc
.	.	.	[2a	.
=6	=6	=6	=6	=6
2A]	2e]	2.A	2a]	2cc]
2F	2f	.	2a	2cc
.	.	4A	.	.
2F	2c	2A	2a	2ff
2F	2f	2A	2a	2ff
=7	=7	=7	=7	=7
0B-	4f	0d	1f	1dd
.	4e	.	.	.
.	4d	.	.	.
.	4c	.	.	.
.	1d	.	1g	1dd
=8	=8	=8	=8	=8
1A	1e	1c#	1a	0r
1G	1g	1d	1b-	.
=9	=9	=9	=9	=9
1d	2.f	4d	2a	1a
.	.	4e	.	.
.	.	4f	2d	.
.	4e	4g	.	.
2d	2d	2a	2.f	2a
[2d	2d	2f	.	2a
.	.	.	4g	.
=10	=10	=10	=10	=10
2d]	0A	0e	0a	0ee
4c	.	.	.	.
4B	.	.	.	.
1c#	.	.	.	.
=11	=11	=11	=11	=11
2d	2r	1.a	2r	2.ff
1D	1d	.	1f	.
.	.	.	.	4ee
.	.	.	.	2.dd
2D	2d	2a	2f	.
.	.	.	.	4cc
=12	=12	=12	=12	=12
1G	1d	2g	1g	0b-
.	.	1d	.	.
2G	2B-	.	2g	.
2G	2B-	2e	2g	.
=13	=13	=13	=13	=13
2F	2c	1f	2a	2a
1F	1c	.	1a	1ff
.	.	2r	.	.
2F	2c	[2f	2a	2ff
=14	=14	=14	=14	=14
1B-	1.d	2f]	1.f	2dd
.	.	2f	.	2.ff
1B-	.	2d	.	.
.	.	.	.	4ee
.	2G	2d	2g	2dd
=15	=15	=15	=15	=15
0A	2.c	1e	1a	2cc
.	.	.	.	2cc
.	4d	.	.	.
.	1e	2r	2r	2cc
.	.	2c	2cc	2a
=16	=16	=16	=16	=16
2r	1A	2e	2cc	2.cc
2A	.	2f	2a	.
.	.	.	.	4dd
2A	2a	2e	4cc	2ee
.	.	.	4b-	.
2A	2a	2c	4a	[2ff
.	.	.	4g	.
=17	=17	=17	=17	=17
1B-	1d	2d	2f	4ff]
.	.	.	.	4ee
.	.	2G	2g	1dd
1A	1e	1r	1a	.
.	.	.	.	2cc#
=18	=18	=18	=18	=18
0D	0f#	2r	2r	1dd
.	.	2.d	2.a	.
.	.	.	.	2r
.	.	4d	4a	.
.	.	2d	2a	[2dd
=19	=19	=19	=19	=19
0r	1r	2g	2b-	4dd]
.	.	.	.	4dd
.	.	2g	2b-	2dd
.	2r	4d	1a	[1ff
.	.	4e	.	.
.	[2d	4f	.	.
.	.	4g	.	.
=20	=20	=20	=20	=20
0r	4d]	2a	4f	2ff]
.	4d	.	4g	.
.	2d	2a	4a	2ff
.	.	.	4b	.
.	[1a	1A	2.cc	2ee
.	.	.	.	4a
.	.	.	4b	4b
=21	=21	=21	=21	=21
0r	2a]	0r	2a	4cc
.	.	.	.	4a
.	2g	.	2.b	2.dd
.	1f	.	.	.
.	.	.	4a	4cc
.	.	.	[2a	4cc
.	.	.	.	8b
.	.	.	.	8a
=22	=22	=22	=22	=22
1r	1e	1r	2a]	1b
.	.	.	2g#	.
2r	2A	2r	1a	2a
[2A	[2a	2e	.	[2cc
=23	=23	=23	=23	=23
2A]	2a]	2e	0r	2cc]
2A	2a	2.f	.	2cc
1c	1g	.	.	1cc
.	.	8e	.	.
.	.	8d	.	.
.	.	2e	.	.
=24	=24	=24	=24	=24
2A	2f#	2c	0r	2cc
2G	2g	2d	.	2b
2c	2g	2e	.	2cc
2d	2f	[2a	.	2a
=25	=25	=25	=25	=25
1B	1d	2a]	1r	1dd
.	.	2g#	.	.
[1A	1e	2.a	2r	1cc#
.	.	.	[2a	.
.	.	4g	.	.
=26	=26	=26	=26	=26
0A]	1r	2f	4a]	2r
.	.	.	4a	.
.	.	4e	2a	2.a
.	.	4d	.	.
.	2r	1e	1cc	.
.	.	.	.	4a
.	[2e	.	.	2a
=27	=27	=27	=27	=27
0r	4e]	1A	2a	2.cc
.	4e	.	.	.
.	2e	.	1cc	.
.	.	.	.	4b
.	2f	1r	.	2a
.	2g	.	[2b	2g
=28	=28	=28	=28	=28
0r	2a	0r	4b]	2cc
.	.	.	4a	.
.	2d	.	1a	2dd
.	2.e	.	.	1b
.	.	.	2g#	.
.	4d	.	.	.
=29	=29	=29	=29	=29
2r	2c#	2r	1a	0a
1d	2d	1f	.	.
.	1A	.	2r	.
2c#	.	2e	[2a	.
=30	=30	=30	=30	=30
2.d	2r	2.f	2a]	0r
.	2d	.	2b	.
8c	.	4g	.	.
8B	.	.	.	.
4A	2e	1a	1cc	.
4G	.	.	.	.
2A	2f#	.	.	.
=31	=31	=31	=31	=31
2G	2.g	1d	2b	2r
2G	.	.	2b	2dd
.	4f	.	.	.
2c	2e	1r	2cc	2ee
2d	2d	.	2a	2ff#
=32	=32	=32	=32	=32
1G	2r	2r	2.b	2.gg
.	2G	2d	.	.
.	.	.	8a	4ff
.	.	.	8b	.
1r	2c	2e	4cc	2ee
.	.	.	4b	.
.	2d	2f#	[2a	[2dd
=33	=33	=33	=33	=33
1r	1e	1g	4a]	4dd]
.	.	.	4g	8cc
.	.	.	.	8b
.	.	.	1g	2cc#
2r	1d	2r	.	[1dd
[2d	.	[2a	4f	.
.	.	.	4e	.
=34	=34	=34	=34	=34
4d]	1r	4a]	1f#	1dd]
4d	.	4a	.	.
2d	.	2a	.	.
2.e	2r	2.g	1r	1b
.	[2g	.	.	.
4d	.	4f	.	.
=35	=35	=35	=35	=35
2c	4g]	2e	0r	2cc
.	4g	.	.	.
2B	2g	4d	.	1dd
.	.	4e	.	.
1A	2.a	4f	.	.
.	.	4g	.	.
.	.	[2a	.	[2cc
.	4g	.	.	.
=36	=36	=36	=36	=36
0r	2f	4a]	0r	4cc]
.	.	4d	.	4b
.	2e	1g	.	2g
.	1d	.	.	1a
.	.	2f#	.	.
=37	=37	=37	=37	=37
2r	2r	0g	2r	2.b
1G	1B	.	1d	.
.	.	.	.	4cc
.	.	.	.	1dd
2G	2B	.	2d	.
=38	=38	=38	=38	=38
2.A	2.c	0r	2.f	0r
4G	4B	.	4e	.
2F	2A	.	2d	.
2E	2G	.	2c#	.
=39	=39	=39	=39	=39
0D	1A	1r	1d	0r
.	2.a	[1d	[1f	.
.	4g	.	.	.
=40	=40	=40	=40	=40
0d	2f	2d]	2f]	0ff
.	2e	2e	2g	.
.	[1d	1f	1a	.
=41	=41	=41	=41	=41
0G	1d]	2.g	0b	0dd
.	.	8f	.	.
.	.	8e	.	.
.	[1g	4d	.	.
.	.	4c	.	.
.	.	2d	.	.
=42	=42	=42	=42	=42
0c	1g]	4c	0cc	0ee
.	.	4d	.	.
.	.	4e	.	.
.	.	4f	.	.
.	1e	1g	.	.
=43	=43	=43	=43	=43
1F	2r	1f	1a	1cc
.	1A	.	.	.
1F	.	1a	1cc	[1ff
.	[2c	.	.	.
=44	=44	=44	=44	=44
0c	4c]	1g	0cc	2ff]
.	4d	.	.	.
.	4e	.	.	2ee
.	4f	.	.	.
.	2g	1e	.	[1ee
.	[2a	.	.	.
=45	=45	=45	=45	=45
1d	4a]	0f	0a	2ee]
.	4g	.	.	.
.	4f	.	.	4dd
.	4e	.	.	4cc#
1D	1d	.	.	1dd
=46	=46	=46	=46	=46
1A	1c#	1e	1a	0ee
2r	2r	2r	2r	.
[2A	[2c#	[2e	[2a	.
=47	=47	=47	=47	=47
4A]	4c#]	4e]	4a]	0r
4A	4c#	4e	4a	.
2D	2d	2f	2a	.
2.A	2.c	4e	[1a	.
.	.	4d	.	.
.	.	4c	.	.
4B	4d	4B	.	.
=48	=48	=48	=48	=48
2c	2e	2A	1a]	0r
2.d	2.f	4d	.	.
.	.	4e	.	.
.	.	4f	[1d	.
4c	4e	4g	.	.
4B	4d	[2a	.	.
4A	4c	.	.	.
=49	=49	=49	=49	=49
1B	1d	2a]	1d]	1r
.	.	2g#	.	.
[1A	2.c	1a	1e	2r
.	.	.	.	[2ee
.	4d	.	.	.
=50	=50	=50	=50	=50
0A]	1e	2r	2r	2ee]
.	.	1e	1cc	2a
.	1r	.	.	2.ee
.	.	2A	2cc	.
.	.	.	.	4ff
=51	=51	=51	=51	=51
0r	0r	2.e	2.b	2.gg
.	.	4f	4a	4ff
.	.	2g	2b	4ee
.	.	.	.	4dd
.	.	[2a	[2cc	[2ff
=52	=52	=52	=52	=52
0r	0r	4a]	4cc]	4ff]
.	.	4g	4b	4ee
.	.	4f	4a	1ee
.	.	4e	4g#	.
.	.	1f	1a	.
.	.	.	.	2dd
=53	=53	=53	=53	=53
2r	2r	2e	2b	1ee
2.A	2.e	2.c	2.a	.
.	.	.	.	1r
4A	4e	4c	4a	.
2D	2f	2d	2a	.
=54	=54	=54	=54	=54
2.A	4e	2.c	2.a	2r
.	4d	.	.	.
.	4c	.	.	2.ee
4B	4B	4d	4g#	.
2c	2A	2e	4a	.
.	.	.	4g	4ee
2d	[2a	2d	4f	2a
.	.	.	4e	.
=55	=55	=55	=55	=55
1B	2a]	1r	2.d	1dd
.	2g#	.	.	.
.	.	.	4e	.
1A	1a	2r	4f	2.cc
.	.	.	4g	.
.	.	[2a	4a	.
.	.	.	4b	4dd
=56	=56	=56	=56	=56
0r	0r	4a]	2cc	2ee
.	.	4a	.	.
.	.	2d	2.b	2.dd
.	.	1f	.	.
.	.	.	4a	4cc
.	.	.	[2a	4cc
.	.	.	.	8b
.	.	.	.	8a
=57	=57	=57	=57	=57
1r	1r	1e	2a]	1b
.	.	.	2g#	.
2r	2r	2.f	2a	1a
[2d	[2f	.	[2a	.
.	.	4e	.	.
=58	=58	=58	=58	=58
4d]	4f]	1d	4a]	2r
4d	4f	.	4a	.
2D	2f	.	2a	2.dd
2.F	2d	2r	1f	.
.	.	.	.	4cc
.	[2c	[2a	.	2a
4G	.	.	.	.
=59	=59	=59	=59	=59
[0A	2c]	4a]	1e	2.cc
.	.	4a	.	.
.	2.e	2A	.	.
.	.	.	.	4dd
.	.	2.c	1a	2ee
.	4e	.	.	.
.	2A	.	.	2ff
.	.	4d	.	.
=60	=60	=60	=60	=60
0A]	2c#	2e	2a	2ee
.	2d	2f	2a	1dd
.	1e	1e	1a	.
.	.	.	.	2cc#
=61	=61	=61	=61	=61
0D	0f#	0d	0a	0dd
=62	=62	=62	=62	=62
0r	0e	0A	0a	0cc#
=63	=63	=63	=63	=63
0r	1f	1d	1a	1dd
.	[1g	[1c	[1cc	[1ee
=64	=64	=64	=64	=64
0r	2g]	2c]	2cc]	2ee]
.	2a	2A	2cc	2ee
.	2g#	2e	2b	2ee
.	2a	2c	2cc	2ee
=65	=65	=65	=65	=65
0r	4f	1d	2.a	1ff
.	4d	.	.	.
.	1a	.	.	.
.	.	.	4b	.
.	.	1e	2cc	[1ee
.	2g#	.	2b	.
=66	=66	=66	=66	=66
1.E	2r	2r	2r	1ee]
.	1g	1e	1b	.
.	.	.	.	1r
2E	2g	2e	2b	.
=67	=67	=67	=67	=67
1E	1e	1g	2b	0r
.	.	.	1b	.
1E	1e	1G	.	.
.	.	.	[2cc	.
=68	=68	=68	=68	=68
0F	1c	0A	2cc]	0r
.	.	.	2b	.
.	1d	.	1a	.
=69	=69	=69	=69	=69
2E	[0e	2B	2g#	2r
1E	.	1B	1g#	1ee
2E	.	2B	2g#	2ee
=70	=70	=70	=70	=70
0A	1e]	1c#	1a	1ee
.	2r	1c#	1a	1ee
.	2a	.	.	.
=71	=71	=71	=71	=71
2D	2f	1d	[0a	1ff
2.d	2d	.	.	.
.	1e	2A	.	[1ee
4c#	.	.	.	.
4c#	.	[2a	.	.
8B	.	.	.	.
8c#	.	.	.	.
=72	=72	=72	=72	=72
0d	2.f	4a]	0a]	2ee]
.	.	4g	.	.
.	.	4f	.	4dd
.	4g	4e	.	4cc#
.	2a	1f	.	1dd
.	[2d	.	.	.
=73	=73	=73	=73	=73
0A	2d]	0e	0a	0ee
.	2c#	.	.	.
.	2r	.	.	.
.	[2c	.	.	.
=74	=74	=74	=74	=74
1F	2c]	2r	0r	1a
.	1d	2a	.	.
1G	.	4g	.	1b
.	.	4f	.	.
.	[2e	4e	.	.
.	.	4d	.	.
=75	=75	=75	=75	=75
1.A	2e]	2c	0r	1cc
.	2e	2A	.	.
.	2e	1c	.	2a
2A	[2e	.	.	[2cc
=76	=76	=76	=76	=76
2A	2e]	2c	0r	4cc]
.	.	.	.	4b
2A	2.f	2c	.	2.a
1B-	.	1d	.	.
.	4e	.	.	8g
.	.	.	.	8f
.	[2d	.	.	2g
=77	=77	=77	=77	=77
1A	2d]	1e	1r	1a
.	2c	.	.	.
2.F	2.A	[1f	[1a	[1cc
4G	4B	.	.	.
=78	=78	=78	=78	=78
4A	2c	2f]	2a]	1cc]
4B	.	.	.	.
1c	2c	2e	2g	.
.	1G	1d	[1g	1dd
2B	.	.	.	.
=79	=79	=79	=79	=79
1c	1r	1c	1g]	1ee
[1A	[1c	[1e	[1a	[1ee
=80	=80	=80	=80	=80
2A]	2c]	2e]	2a]	2ee]
2A	2A	2e	2cc	2ee
2G#	2B	2e	2b	2ee
2A	2c#	2e	2a	2ee
=81	=81	=81	=81	=81
1D	1d	2e	1a	1ff
.	.	1d	.	.
1A	1e	.	1a	1ee
.	.	2c#	.	.
=82	=82	=82	=82	=82
1D	1f	1d	1a	1dd
[1A	2e	1c#	[1a	1ee
.	2e	.	.	.
=83	=83	=83	=83	=83
1A]	1c	2r	0a]	2r
.	.	2e	.	2a
1r	2A	2c	.	1cc
.	[2a	2A	.	.
=84	=84	=84	=84	=84
0r	4a]	1e	0r	2b
.	8g	.	.	.
.	8f#	.	.	.
.	2g#	.	.	2cc
.	2.a	2.f	.	2.dd
.	4g	4e	.	4cc
=85	=85	=85	=85	=85
0r	2f	2d	0r	2b
.	2e	2c	.	2.a
.	1d	1B	.	.
.	.	.	.	4g#
.	.	.	.	2g#
=86	=86	=86	=86	=86
1r	2e	2A	2r	1a
.	1f	1d	1a	.
[1A	.	.	.	1r
.	2e	2c	2a	.
=87	=87	=87	=87	=87
2A]	2e	4A	2.cc	0r
.	.	4B	.	.
2A	2.A	4c	.	.
.	.	4d	4b	.
2.c	.	2e	2a	.
.	4B	.	.	.
.	[2c	2e	2g	.
4B	.	.	.	.
=88	=88	=88	=88	=88
2A	2c]	4f	0a	0r
.	.	4e	.	.
2G	2B	2.e	.	.
1F	1A	.	.	.
.	.	8d	.	.
.	.	8c	.	.
.	.	2d	.	.
=89	=89	=89	=89	=89
1E	2B	1e	1g#	1r
.	1e	.	.	.
[1A	.	[1c#	[1a	[1ee
.	2e	.	.	.
=90	=90	=90	=90	=90
2A]	1e	2c#]	2a]	2ee]
2A	.	2c#	2a	2ee
1A	2r	1c#	[1a	1ee
.	2a	.	.	.
=91	=91	=91	=91	=91
2r	1f	1d	1a]	2r
2d	.	.	.	2ff
2e	2g	2r	2r	2ee
2c	[2a	2e	2cc	2ee
=92	=92	=92	=92	=92
0d	2a]	2f#	2a	0dd
.	1g	2g	2b	.
.	.	2a	1a	.
.	2f#	[2d	.	.
=93	=93	=93	=93	=93
1G	2.g	2d]	1b	1dd
.	.	2g	.	.
.	8f	.	.	.
.	8e	.	.	.
2r	1d	2a	1r	1ff
2d	.	2f	.	.
=94	=94	=94	=94	=94
2e	2r	4g	2r	2ee
.	.	4e	.	.
2c	2e	1a	2cc	2ee
[1d	2f#	.	2a	[1dd
.	2g	[2g	2b	.
=95	=95	=95	=95	=95
2d]	2a	2g]	2a	2dd]
2d	2d	2f#	2a	2dd
1G	2d	2.g	1b	1dd
.	2g	.	.	.
.	.	8f	.	.
.	.	8e	.	.
=96	=96	=96	=96	=96
2r	2a	1d	1r	1ff
2d	2f	.	.	.
1e	2.g	2r	1b	1ee
.	.	2g	.	.
.	4f#	.	.	.
=97	=97	=97	=97	=97
2c	2g	1e	1cc	2ee
2c	1a	.	.	2ee
[1d	.	2f#	2a	[1dd
.	[2g	2g	2b	.
=98	=98	=98	=98	=98
2d]	2g]	2a	2a	2dd]
2d	2f#	2d	2a	2dd
1G	1g	2d	1b	2dd
.	.	4g	.	[2ee
.	.	4f	.	.
=99	=99	=99	=99	=99
1A	1c	4e	1a	2ee]
.	.	4d	.	.
.	.	2e	.	1cc
1F	1f	1a	1cc	.
.	.	.	.	[2ff
=100	=100	=100	=100	=100
0c	1g	0g	0cc	2ff]
.	.	.	.	4ee
.	.	.	.	4dd
.	1c	.	.	1ee
=101	=101	=101	=101	=101
1F	2r	0f	1a	0ff
.	2a	.	.	.
1r	2a	.	2r	.
.	2d	.	2a	.
=102	=102	=102	=102	=102
0r	2.f	0r	2a	2r
.	.	.	2d	2dd
.	4e	.	.	.
.	2d	.	2.f	2dd
.	2d	.	.	2a
.	.	.	4g	.
=103	=103	=103	=103	=103
0r	1A	2r	4a	2.cc
.	.	.	4b	.
.	.	2a	2.cc	.
.	.	.	.	4dd
.	1r	2a	.	4ee
.	.	.	4a	4cc
.	.	2d	[2b	[2dd
=104	=104	=104	=104	=104
0r	0r	2.f	4b]	4dd]
.	.	.	4a	4cc
.	.	.	1a	4cc
.	.	4f	.	8b
.	.	.	.	8a
.	.	1e	.	2b
.	.	.	2g#	2b
=105	=105	=105	=105	=105
2r	2r	0r	1a	0a
2d	2f	.	.	.
2d	2f	.	2r	.
2d	2f	.	2a	.
=106	=106	=106	=106	=106
0c	0e	0r	2a	2r
.	.	.	2a	2cc
.	.	.	[1g	2cc
.	.	.	.	2cc
=107	=107	=107	=107	=107
1e	1.g	1r	1g]	1b
[1d	.	2r	1b-	[1dd
.	[2f	4d	.	.
.	.	4e	.	.
=108	=108	=108	=108	=108
1d]	2f]	4f	1a	1dd]
.	.	4g	.	.
.	4e	1a	.	.
.	4d	.	.	.
2.A	2e	.	1r	2cc
.	2f	2a	.	[2cc
4B	.	.	.	.
=109	=109	=109	=109	=109
2c	2e	2g	0r	2cc]
2G	2.d	2g	.	2b-
1A	.	1e	.	1a
.	8c	.	.	.
.	8B	.	.	.
.	2c#	.	.	.
=110	=110	=110	=110	=110
2D	2d	2f	1r	2a
2D	2a	2d	.	2ff
2D	2f	2d	2r	2ff
2D	2d	2d	2a	2ff
=111	=111	=111	=111	=111
2.A	1.e	1c	2a	0ee
.	.	.	2a	.
4B	.	.	.	.
1c	.	1e	1g	.
.	[2g	.	.	.
=112	=112	=112	=112	=112
1G	4g]	1d	1b-	1gg
.	4f	.	.	.
.	4d	.	.	.
.	4e	.	.	.
2D	4f	2.d	2a	2ff
.	4g	.	.	.
[2d	2a	.	4f	[2ff
.	.	4e	4g	.
=113	=113	=113	=113	=113
2d]	2d	4f	4a	2ff]
.	.	4g	4b	.
2A	1e	2a	1cc	1ee
2c	.	2g	.	.
2d	2a	2f	2a	[2dd
=114	=114	=114	=114	=114
0A	2r	0e	1a	2dd]
.	1a	.	.	4cc
.	.	.	.	4b
.	.	.	[1a	1cc#
.	2e	.	.	.
=115	=115	=115	=115	=115
2D	2f#	[0d	2a]	[0dd
1G	2g	.	1b-	.
.	4d	.	.	.
.	4e	.	.	.
2D	4f	.	[2a	.
.	4g	.	.	.
=116	=116	=116	=116	=116
2F	2a	1d_	4a]	1dd_
.	.	.	8g	.
.	.	.	8a	.
2G	1g	.	2b-	.
1D	.	1d_	2a	1dd_
.	2f#	.	2a	.
=117	=117	=117	=117	=117
1.G	0g	0d]	1b-	0dd]
.	.	.	2b-	.
4F	.	.	4a	.
4E	.	.	4g	.
=118	=118	=118	=118	=118
[0D	[0f#	[0d	[0a	[0dd
=119	=119	=119	=119	=119
0D]	0f#]	0d]	0a]	0dd]
==	==	==	==	==
*-	*-	*-	*-	*-
!!!CDT: 1525/^1526/-1594/2/2
!!!OCY: Italia
!!!AGN: Mass (Parody)
!!!AST: renaissance, vocal
!!!ASW: Motet (Jacquet)
!!!PWK: Masses, Book 2
!!!RNB: Cadence finals: A
!!!YOR: Le Opere Complete, v. 4, p. 91
!!!YOO: Rome, Italy: Fratelli Scalera
!!!END: 1992//
!!!EED: John Miller
!!!YEC: Copyright 2000, John Miller
!!!YEN: United States of America
!!!YEM: Rights to all derivative electronic formats reserved.
!!!YEM: Refer to licensing agreement for further details.
!!!YEM: This file must be accompanied by the licensing agreement.
!!!YEM: A copy of the licensing agreement may be found at http://www.music-cog.ohio-state.edu/HumdrumDatabases/Palestrina/license.txt
!!!EMD: converted to Humdrum by Bret Aarden
